X:1
T:Ain't no sunshine
T:Ain't no sunshine
%%score 1 2 3 4
L:1/8
Q:1/4=75
M:4/4
K:C
V:1 treble-8 nm="Chitarra classica" snm="Chit. cl."
V:2 treble-8 nm="Chitarra acustica" snm="Chit. cl."
V:3 treble-8 nm="Chitarra classica" snm="Chit. cl."
V:4 treble-8 nm="Chitarra classica" snm="Chit. cl."
V:1
 .A,!p! !>![A,CE]4 z z2 |[Q:1/4=75] [A,E][A,C][A,E][A,C]!ff! E,!p![A,C]!ff!G,!p![A,C] | %2
!ff! A,2-!p! [A,CE]6 | [A,E][A,C][A,E][A,C]!ff! E,!p![A,C]!ff!G,!p![A,C] |!ff! A,2-!p! [A,CE]6 | %5
 D[dg]Dg D[dg]D[dg] | C[cf]Cf C[cf]C[cf] | [A,E][A,C][A,E][A,C]!ff! E,!p![A,C]!ff!G,!p![A,C] | %8
!ff! A,2-!p! [A,CE]6 |[Q:1/4=72] [A,E][A,C][A,E][A,C]!ff! E,!p![A,C]!ff!G,!p![A,C] | %10
!ff! A,2-!p! [A,CE]6 | [A,E][A,C][A,E][A,C]!ff! E,!p![A,C]!ff!G,!p![A,C] | [A,CE]6 z2 | %13
 D[dg]Dg D[dg]D[dg] | C[cf]Cf C[cf]C[cf] | [A,E][A,C][A,E][A,C]!ff! E,!p![A,C]!ff!G,!p![A,C] | z8 | %17
 z8 | z8 | z8 | z8 | z8 | z8 | [A,E][A,C][A,E][A,C]!ff! E,!p![A,C]!ff!G,!p![A,C] | %24
!ff! A,2-!p! [A,CE]6 | [A,E][A,C][A,E][A,C]!ff! E,!p![A,C]!ff!G,!p![A,C] | [A,CE]6 z2 | %27
 D[dg]Dg D[dg]D[dg] | C[cf]Cf C[cf]C[cf] | [A,E][A,C][A,E][A,C]!ff! E,4 | e2 ce ^g b3 |] %31
V:2
 z8 | z8 | z8 | z8 | z8 | z8 | z8 | z8 | z8 | EG/!pp!A/ c/!mp! e2- e/{/C} D2 C/D/ | E2 z2 z4 | %11
 EG/!pp!d/ g/!mp! e2 z/{/C} D2 z |{/CD} E G2 z z2 z/!f! A,/C/D/ | EG/B/ g2 z z z/ z/ z/ G,/ | %14
 A,C/E/ F2 z2 z A,/A,/ |{/C} E!p!G z C/ D2 z EG/- | G/ z/ z/ z/ z2 z4 | z8 | z8 | z8 | z8 | z8 | %22
 z8 | EG/!pp!A/ c/!mp! e2- e/{/C} D2 C/D/ | E2 z2 z4 | EG/!pp!d/ g/!mp! e2 z/{/C} D2 z | %26
{/CD} E G2 z z2 z/!f! A,/C/D/ | EG/B/ g2 z z z/ z/ z/ G,/ | A,C/E/ F2 z2 z A,/A,/ | %29
{/C} E!p!G z C/ D2 z z z/ | c8 |] %31
V:3
 z z!fff! E/GA3/2cB!fermata!G- |!>(! G/ A4 z/ z z2!>)! | z z!fff! E/GA3/2cBG | A/ A6 z/ z | %4
 z z!fff! A/Ace3/2 d/e/e | d2 z/ c/d<cA G>A | A2 c/d/ c2 A G>A | A4 z4 | z z!fff! E/GA3/2cBG- | %9
!>(! G/ A4 z/ z z2!>)! | z z!fff! E/GA3/2cBG | A/ A6 z/ z | z z!fff! A/Ace3/2 d/e/e | %13
 d2 z/ c/d<cA G>A | A2 c/d/ c2 A G>A | A4 z4 | a!p!g/ag/a g/ag/ a/ z/!p! g/a/- | %17
 a/g/a g/ag/ a/ z/!p! g/ag/a | g/ag/ a/ z/!p! g/ag/a g/ag/ | a/ z/!p! g/ag/a g/ag/ a/ z/!p! g/a/- | %20
!<(! a/g/a!f! g/ag/!ff! c'/ z/ e' d'/!>!e'/e'/>!>!g'/-!<)! | %21
 g'/e'/c'3/4 z/4 z/ d'c'/ d' z/ z/ a/e'/d' | c'2 a2 g4 |!>(! a/- a4 z/ z z2!>)! | %24
 z z!fff! e/ga3/2c'bg | a/ a6 z/ z | z z!fff! a/ac'e'3/2 d'/e'/e' | d'2 z/ c'/d'<c'a g>a | %28
 a2 c'/d'/ c'2 a g>a | a4 b4 | a8 |] %31
V:4
 z8 | z8 | z8 | z8 | z8 | z8 | z8 | z8 | z8 | [A,CE]8 | [E,A,C]8 | [A,CE]8 | [E,A,C]8 | [=F,A,D]8 | %14
 [=F,A,C]8 | [A,CE]8 | z8 | z8 | z8 | z8 | z8 | z8 | z8 | [A,CE]8 | [E,A,C]8 | [A,CE]8 | [E,A,C]8 | %27
 [=F,A,D]8 | [=F,A,C]8 | [A,CE]4 [^G,B,D]4 | [E,A,C]8 |] %31

